;FLAVOR:Marlin
;TIME:1352
;Filament used: 0.984551m
;Layer height: 0.2
;MINX:79.016
;MINY:79.014
;MINZ:0.2
;MAXX:140.993
;MAXY:140.987
;MAXZ:3
;Generated with Creality Slicer 4.8.2-254
M140 S60
M105
M190 S60
M104 S200
M105
M109 S200
M82 ;absolute extrusion mode

G28 ;Home

G92 E0 ;Reset Extruder
G1 Z2.0 F3000 ;Move Z Axis up
G1 X10.1 Y20 Z0.28 F5000.0 ;Move to start position
G1 X10.1 Y200.0 Z0.28 F1500.0 E15 ;Draw the first line
G1 X10.4 Y200.0 Z0.28 F5000.0 ;Move to side a little
G1 X10.4 Y20 Z0.28 F1500.0 E30 ;Draw the second line
G92 E0 ;Reset Extruder
G1 Z2.0 F3000 ;Move Z Axis up

G92 E0
G92 E0
G1 F2400 E-0.8
;LAYER_COUNT:15
;LAYER:0
M107
G0 F6000 X87.999 Y88.183 Z0.2
;TYPE:SKIRT
G1 F2400 E0
G1 F1200 X88.516 Y87.674 E0.02413
G1 X88.738 Y87.462 E0.03434
G1 X89.071 Y87.152 E0.04947
G1 X89.327 Y86.921 E0.06094
G1 X89.867 Y86.449 E0.0848
G1 X90.099 Y86.251 E0.09494
G1 X90.456 Y85.956 E0.11034
G1 X90.736 Y85.733 E0.12225
G1 X91.366 Y85.246 E0.14873
G1 X91.635 Y85.044 E0.15992
G1 X92.039 Y84.751 E0.17652
G1 X92.3 Y84.568 E0.18712
G1 X92.825 Y84.21 E0.20826
G1 X93.092 Y84.033 E0.21891
G1 X93.492 Y83.777 E0.23471
G1 X93.782 Y83.598 E0.24604
G1 X94.42 Y83.217 E0.27076
G1 X94.691 Y83.06 E0.28118
G1 X95.113 Y82.824 E0.29726
G1 X95.406 Y82.666 E0.30833
G1 X96.025 Y82.344 E0.33154
G1 X96.308 Y82.202 E0.34207
G1 X96.717 Y82.004 E0.35718
G1 X97.045 Y81.852 E0.3692
G1 X97.734 Y81.546 E0.39428
G1 X98.003 Y81.431 E0.40401
G1 X98.444 Y81.249 E0.41988
G1 X98.769 Y81.121 E0.43149
G1 X99.426 Y80.874 E0.45484
G1 X99.731 Y80.764 E0.46562
G1 X100.16 Y80.617 E0.48071
G1 X100.482 Y80.512 E0.49197
G1 X101.237 Y80.279 E0.51825
G1 X101.536 Y80.192 E0.52861
G1 X101.939 Y80.08 E0.54252
G1 X102.275 Y79.992 E0.55407
G1 X103 Y79.815 E0.57889
G1 X103.294 Y79.747 E0.58893
G1 X103.74 Y79.651 E0.60411
G1 X104.077 Y79.584 E0.61553
G1 X104.799 Y79.452 E0.63994
G1 X105.145 Y79.395 E0.65161
G1 X105.625 Y79.323 E0.66775
G1 X105.936 Y79.281 E0.67819
G1 X106.622 Y79.198 E0.70117
G1 X106.951 Y79.163 E0.71218
G1 X107.404 Y79.122 E0.7273
G1 X107.727 Y79.097 E0.73808
G1 X108.531 Y79.048 E0.76487
G1 X108.879 Y79.033 E0.77646
G1 X109.358 Y79.019 E0.79239
G1 X109.679 Y79.014 E0.80307
G1 X110.358 Y79.014 E0.82566
G1 X110.693 Y79.019 E0.8368
G1 X111.152 Y79.033 E0.85207
G1 X111.464 Y79.047 E0.86246
G1 X112.211 Y79.091 E0.88735
G1 X112.551 Y79.116 E0.89869
G1 X113.006 Y79.157 E0.91388
G1 X113.329 Y79.191 E0.92468
G1 X114.021 Y79.274 E0.94787
G1 X114.321 Y79.314 E0.95793
G1 X114.828 Y79.389 E0.97498
G1 X115.171 Y79.446 E0.98654
G1 X115.864 Y79.571 E1.00996
G1 X116.196 Y79.636 E1.02122
G1 X116.648 Y79.732 E1.03659
G1 X116.951 Y79.801 E1.04692
G1 X117.674 Y79.976 E1.07166
G1 X118.016 Y80.064 E1.08341
G1 X118.472 Y80.19 E1.09914
G1 X118.774 Y80.278 E1.10961
G1 X119.441 Y80.483 E1.13281
G1 X119.759 Y80.587 E1.14394
G1 X120.24 Y80.751 E1.16084
G1 X120.558 Y80.864 E1.17207
G1 X121.205 Y81.107 E1.19506
G1 X121.487 Y81.218 E1.20514
G1 X121.951 Y81.407 E1.2218
G1 X122.27 Y81.543 E1.23333
G1 X122.911 Y81.828 E1.25667
G1 X123.198 Y81.96 E1.26717
G1 X123.613 Y82.159 E1.28248
G1 X123.913 Y82.309 E1.29364
G1 X124.597 Y82.663 E1.31925
G1 X124.905 Y82.828 E1.33087
G1 X125.247 Y83.019 E1.3439
G1 X125.529 Y83.182 E1.35474
G1 X126.238 Y83.606 E1.38221
G1 X126.513 Y83.777 E1.39298
G1 X126.942 Y84.051 E1.40991
G1 X127.211 Y84.228 E1.42062
G1 X127.731 Y84.582 E1.44155
G1 X128.011 Y84.779 E1.45293
G1 X128.385 Y85.051 E1.46831
G1 X128.635 Y85.239 E1.47872
G1 X129.222 Y85.692 E1.50338
G1 X129.479 Y85.896 E1.51429
G1 X129.852 Y86.202 E1.53034
G1 X130.113 Y86.423 E1.54171
G1 X130.636 Y86.88 E1.56482
G1 X130.858 Y87.079 E1.57473
G1 X131.247 Y87.438 E1.59234
G1 X131.507 Y87.686 E1.60429
G1 X131.981 Y88.153 E1.62642
G1 X132.204 Y88.38 E1.637
G1 X132.523 Y88.713 E1.65234
G1 X132.756 Y88.963 E1.66371
G1 X133.296 Y89.563 E1.69056
G1 X133.511 Y89.809 E1.70142
G1 X133.817 Y90.17 E1.71716
G1 X134.025 Y90.423 E1.72806
G1 X134.443 Y90.947 E1.75035
G1 X134.647 Y91.21 E1.76142
G1 X134.952 Y91.617 E1.77834
G1 X135.138 Y91.874 E1.78889
G1 X135.533 Y92.434 E1.81168
G1 X135.721 Y92.709 E1.82276
G1 X135.986 Y93.11 E1.83875
G1 X136.159 Y93.38 E1.84941
G1 X136.521 Y93.964 E1.87227
G1 X136.697 Y94.258 E1.88366
G1 X136.954 Y94.703 E1.90075
G1 X137.107 Y94.978 E1.91122
G1 X137.459 Y95.63 E1.93586
G1 X137.619 Y95.937 E1.94738
G1 X137.813 Y96.325 E1.96181
G1 X137.949 Y96.607 E1.97222
G1 X138.26 Y97.276 E1.99676
G1 X138.396 Y97.58 E2.00783
G1 X138.567 Y97.979 E2.02227
G1 X138.692 Y98.284 E2.03324
G1 X138.984 Y99.026 E2.05976
G1 X139.101 Y99.337 E2.07081
G1 X139.25 Y99.752 E2.08547
G1 X139.357 Y100.065 E2.09648
G1 X139.576 Y100.738 E2.12002
G1 X139.672 Y101.047 E2.13078
G1 X139.801 Y101.487 E2.14603
G1 X139.891 Y101.813 E2.15728
G1 X140.084 Y102.555 E2.18278
G1 X140.16 Y102.866 E2.19343
G1 X140.268 Y103.337 E2.2095
G1 X140.337 Y103.66 E2.22048
G1 X140.469 Y104.327 E2.2431
G1 X140.526 Y104.643 E2.25378
G1 X140.606 Y105.12 E2.26986
G1 X140.658 Y105.456 E2.28117
G1 X140.755 Y106.169 E2.30511
G1 X140.793 Y106.487 E2.31576
G1 X140.847 Y106.994 E2.33272
G1 X140.878 Y107.336 E2.34414
G1 X140.929 Y108.016 E2.36682
G1 X140.948 Y108.325 E2.37711
G1 X140.97 Y108.795 E2.39276
G1 X140.981 Y109.131 E2.40395
G1 X140.993 Y109.871 E2.42856
G1 X140.993 Y110.214 E2.43997
G1 X140.986 Y110.68 E2.45547
G1 X140.976 Y110.997 E2.46602
G1 X140.944 Y111.726 E2.49029
G1 X140.925 Y112.056 E2.50128
G1 X140.89 Y112.529 E2.51706
G1 X140.86 Y112.864 E2.52824
G1 X140.787 Y113.56 E2.55152
G1 X140.749 Y113.878 E2.56217
G1 X140.681 Y114.384 E2.57915
G1 X140.629 Y114.727 E2.59069
G1 X140.51 Y115.441 E2.61477
G1 X140.457 Y115.736 E2.62474
G1 X140.368 Y116.193 E2.64022
G1 X140.302 Y116.509 E2.65096
G1 X140.155 Y117.161 E2.67319
G1 X140.067 Y117.521 E2.68552
G1 X139.938 Y118.015 E2.7025
G1 X139.858 Y118.306 E2.71253
G1 X139.656 Y119.001 E2.73661
G1 X139.554 Y119.332 E2.74813
G1 X139.396 Y119.818 E2.76512
G1 X139.296 Y120.113 E2.77548
G1 X139.072 Y120.741 E2.79766
G1 X138.96 Y121.04 E2.80828
G1 X138.785 Y121.489 E2.82431
G1 X138.65 Y121.82 E2.8362
G1 X138.354 Y122.512 E2.86123
G1 X138.232 Y122.787 E2.87124
G1 X138.028 Y123.23 E2.88746
G1 X137.875 Y123.548 E2.8992
G1 X137.583 Y124.132 E2.92091
G1 X137.443 Y124.403 E2.93106
G1 X137.207 Y124.844 E2.94769
G1 X137.037 Y125.15 E2.95934
G1 X136.654 Y125.814 E2.98483
G1 X136.488 Y126.091 E2.99557
G1 X136.258 Y126.464 E3.01015
G1 X136.08 Y126.744 E3.02118
G1 X135.676 Y127.357 E3.0456
G1 X135.481 Y127.643 E3.05711
G1 X135.261 Y127.955 E3.06981
G1 X135.073 Y128.214 E3.08046
G1 X134.555 Y128.905 E3.10918
G1 X134.353 Y129.165 E3.12013
G1 X134.038 Y129.56 E3.13693
G1 X133.825 Y129.819 E3.14809
G1 X133.399 Y130.321 E3.16999
G1 X133.201 Y130.549 E3.18003
G1 X132.905 Y130.879 E3.19477
G1 X132.668 Y131.134 E3.20635
G1 X132.171 Y131.654 E3.23028
G1 X131.949 Y131.88 E3.24081
G1 X131.62 Y132.205 E3.25619
G1 X131.385 Y132.43 E3.26702
G1 X130.82 Y132.956 E3.29269
G1 X130.55 Y133.2 E3.30479
G1 X130.209 Y133.497 E3.31983
G1 X129.977 Y133.693 E3.32994
G1 X129.45 Y134.127 E3.35264
G1 X129.21 Y134.319 E3.36287
G1 X128.85 Y134.599 E3.37803
G1 X128.553 Y134.823 E3.39041
G1 X127.888 Y135.305 E3.41772
G1 X127.617 Y135.494 E3.42871
G1 X127.167 Y135.8 E3.44681
G1 X126.906 Y135.972 E3.45721
G1 X126.421 Y136.282 E3.47635
G1 X126.15 Y136.45 E3.48696
G1 X125.736 Y136.698 E3.50301
G1 X125.444 Y136.867 E3.51423
G1 X124.799 Y137.227 E3.5388
G1 X124.523 Y137.376 E3.54923
G1 X124.101 Y137.596 E3.56506
G1 X123.808 Y137.743 E3.57596
G1 X123.153 Y138.06 E3.60017
G1 X122.844 Y138.204 E3.6115
G1 X122.416 Y138.395 E3.62709
G1 X122.107 Y138.527 E3.63827
G1 X121.439 Y138.801 E3.66228
G1 X121.135 Y138.921 E3.67315
G1 X120.672 Y139.095 E3.6896
G1 X120.367 Y139.204 E3.70038
G1 X119.719 Y139.426 E3.72316
G1 X119.397 Y139.531 E3.73442
G1 X118.927 Y139.676 E3.75078
G1 X118.624 Y139.765 E3.76129
G1 X117.939 Y139.955 E3.78493
G1 X117.611 Y140.04 E3.7962
G1 X117.112 Y140.162 E3.81329
G1 X116.803 Y140.233 E3.82383
G1 X116.149 Y140.373 E3.84608
G1 X115.818 Y140.439 E3.8573
G1 X115.357 Y140.523 E3.87289
G1 X115.025 Y140.578 E3.88408
G1 X114.249 Y140.695 E3.91018
G1 X113.933 Y140.738 E3.92079
G1 X113.463 Y140.795 E3.93654
G1 X113.13 Y140.83 E3.94767
G1 X112.467 Y140.89 E3.96981
G1 X112.152 Y140.914 E3.98032
G1 X111.697 Y140.942 E3.99548
G1 X111.349 Y140.958 E4.00707
G1 X110.544 Y140.982 E4.03386
G1 X110.216 Y140.987 E4.04477
G1 X109.768 Y140.987 E4.05967
G1 X109.444 Y140.982 E4.07044
G1 X108.698 Y140.96 E4.09527
G1 X108.362 Y140.945 E4.10645
G1 X107.896 Y140.917 E4.12198
G1 X107.568 Y140.892 E4.13292
G1 X106.903 Y140.832 E4.15513
G1 X106.586 Y140.799 E4.16573
G1 X106.084 Y140.739 E4.18255
G1 X105.767 Y140.697 E4.19318
G1 X105.083 Y140.595 E4.21618
G1 X104.753 Y140.54 E4.22731
G1 X104.276 Y140.454 E4.24343
G1 X103.961 Y140.393 E4.2541
G1 X103.225 Y140.238 E4.27912
G1 X102.873 Y140.158 E4.29113
G1 X102.461 Y140.057 E4.30523
G1 X102.15 Y139.976 E4.31592
G1 X101.419 Y139.774 E4.34115
G1 X101.128 Y139.689 E4.35123
G1 X100.661 Y139.546 E4.36748
G1 X100.328 Y139.438 E4.37912
G1 X99.669 Y139.213 E4.40228
G1 X99.363 Y139.104 E4.41308
G1 X98.904 Y138.932 E4.42939
G1 X98.611 Y138.817 E4.43986
G1 X97.966 Y138.554 E4.46302
G1 X97.643 Y138.416 E4.47471
G1 X97.194 Y138.216 E4.49105
G1 X96.907 Y138.083 E4.50157
G1 X96.243 Y137.764 E4.52608
G1 X95.953 Y137.62 E4.53685
G1 X95.574 Y137.424 E4.55104
G1 X95.272 Y137.262 E4.56243
G1 X94.617 Y136.897 E4.58737
G1 X94.353 Y136.745 E4.59751
G1 X93.976 Y136.521 E4.61209
G1 X93.674 Y136.335 E4.62389
G1 X92.996 Y135.902 E4.65065
G1 X92.705 Y135.709 E4.66226
G1 X92.268 Y135.41 E4.67987
G1 X92.006 Y135.225 E4.69054
G1 X91.506 Y134.861 E4.71111
G1 X91.26 Y134.677 E4.72133
G1 X90.901 Y134.4 E4.73641
G1 X90.632 Y134.186 E4.74784
G1 X90.034 Y133.694 E4.7736
G1 X89.811 Y133.505 E4.78332
G1 X89.477 Y133.215 E4.79803
G1 X89.215 Y132.98 E4.80974
G1 X88.674 Y132.479 E4.83426
G1 X88.435 Y132.251 E4.84525
G1 X88.132 Y131.953 E4.85938
G1 X87.901 Y131.719 E4.87032
G1 X87.355 Y131.149 E4.89657
G1 X87.119 Y130.894 E4.90813
G1 X86.852 Y130.597 E4.92141
G1 X86.648 Y130.364 E4.93171
G1 X86.135 Y129.76 E4.95807
G1 X85.92 Y129.499 E4.96932
G1 X85.636 Y129.143 E4.98446
G1 X85.435 Y128.883 E4.99539
G1 X85.009 Y128.315 E5.01901
G1 X84.82 Y128.055 E5.0297
G1 X84.54 Y127.658 E5.04586
G1 X84.36 Y127.395 E5.05646
G1 X83.965 Y126.799 E5.08024
G1 X83.786 Y126.519 E5.09129
G1 X83.564 Y126.161 E5.1053
G1 X83.385 Y125.862 E5.11689
G1 X82.977 Y125.155 E5.14404
G1 X82.821 Y124.876 E5.15467
G1 X82.607 Y124.479 E5.16967
G1 X82.458 Y124.192 E5.18043
G1 X82.142 Y123.562 E5.20387
G1 X81.991 Y123.249 E5.21543
G1 X81.805 Y122.847 E5.23016
G1 X81.673 Y122.551 E5.24094
G1 X81.37 Y121.842 E5.26659
G1 X81.258 Y121.571 E5.27634
G1 X81.092 Y121.152 E5.29133
G1 X80.967 Y120.819 E5.30316
G1 X80.717 Y120.123 E5.32776
G1 X80.606 Y119.799 E5.33915
G1 X80.471 Y119.383 E5.35369
G1 X80.381 Y119.093 E5.36379
G1 X80.163 Y118.352 E5.38948
G1 X80.072 Y118.023 E5.40084
G1 X79.963 Y117.605 E5.4152
G1 X79.883 Y117.275 E5.4265
G1 X79.724 Y116.578 E5.45028
G1 X79.659 Y116.277 E5.46052
G1 X79.56 Y115.779 E5.47741
G1 X79.499 Y115.442 E5.4888
G1 X79.383 Y114.746 E5.51227
G1 X79.332 Y114.408 E5.52363
G1 X79.267 Y113.926 E5.53981
G1 X79.231 Y113.63 E5.54973
G1 X79.156 Y112.931 E5.57311
G1 X79.124 Y112.578 E5.5849
G1 X79.088 Y112.097 E5.60094
G1 X79.069 Y111.785 E5.61134
G1 X79.034 Y111.029 E5.63651
G1 X79.024 Y110.704 E5.64733
G1 X79.017 Y110.285 E5.66126
G1 X79.016 Y109.942 E5.67267
G1 X79.027 Y109.18 E5.69802
G1 X79.036 Y108.865 E5.7085
G1 X79.054 Y108.448 E5.72238
G1 X79.075 Y108.1 E5.73398
G1 X79.132 Y107.339 E5.75936
G1 X79.162 Y107.005 E5.77051
G1 X79.22 Y106.456 E5.78887
G1 X79.258 Y106.138 E5.79953
G1 X79.342 Y105.517 E5.82037
G1 X79.391 Y105.19 E5.83137
G1 X79.467 Y104.732 E5.84681
G1 X79.525 Y104.414 E5.85756
G1 X79.673 Y103.66 E5.88312
G1 X79.741 Y103.34 E5.894
G1 X79.844 Y102.887 E5.90945
G1 X79.92 Y102.572 E5.92023
G1 X80.1 Y101.876 E5.94414
G1 X80.188 Y101.556 E5.95517
G1 X80.312 Y101.13 E5.96993
G1 X80.41 Y100.812 E5.981
G1 X80.633 Y100.124 E6.00505
G1 X80.743 Y99.802 E6.01637
G1 X80.913 Y99.328 E6.03312
G1 X81.026 Y99.028 E6.04378
G1 X81.289 Y98.357 E6.06775
G1 X81.405 Y98.072 E6.07799
G1 X81.585 Y97.648 E6.09331
G1 X81.729 Y97.323 E6.10513
G1 X82.044 Y96.643 E6.13006
G1 X82.171 Y96.378 E6.13983
G1 X82.366 Y95.985 E6.15442
G1 X82.526 Y95.675 E6.16603
G1 X82.873 Y95.028 E6.19044
G1 X83.034 Y94.738 E6.20148
G1 X83.262 Y94.342 E6.21667
G1 X83.444 Y94.039 E6.22843
G1 X83.846 Y93.39 E6.25382
G1 X84.002 Y93.145 E6.26348
G1 X84.262 Y92.749 E6.27924
G1 X84.468 Y92.446 E6.29142
G1 X84.851 Y91.903 E6.31353
G1 X85.025 Y91.663 E6.32339
G1 X85.349 Y91.229 E6.3414
G1 X85.551 Y90.967 E6.3524
G1 X85.976 Y90.432 E6.37513
G1 X86.195 Y90.164 E6.38664
G1 X86.483 Y89.824 E6.40146
G1 X86.694 Y89.583 E6.41211
G1 X87.198 Y89.022 E6.4372
G1 X87.424 Y88.778 E6.44826
G1 X87.759 Y88.427 E6.4644
G1 X87.999 Y88.183 E6.47578
G0 F6000 X88.279 Y88.468
G1 F1200 X88.796 Y87.959 E6.49991
G1 X89.01 Y87.755 E6.50974
G1 X89.343 Y87.445 E6.52488
G1 X89.59 Y87.222 E6.53594
G1 X90.13 Y86.75 E6.5598
G1 X90.354 Y86.56 E6.56957
G1 X90.711 Y86.265 E6.58497
G1 X90.98 Y86.05 E6.59642
G1 X91.61 Y85.563 E6.62291
G1 X91.87 Y85.368 E6.63372
G1 X92.274 Y85.075 E6.65032
G1 X92.525 Y84.898 E6.66053
G1 X93.05 Y84.54 E6.68167
G1 X93.308 Y84.37 E6.69194
G1 X93.708 Y84.114 E6.70774
G1 X93.987 Y83.941 E6.71866
G1 X94.625 Y83.56 E6.74337
G1 X94.886 Y83.409 E6.7534
G1 X95.308 Y83.173 E6.76948
G1 X95.59 Y83.021 E6.78014
G1 X96.209 Y82.699 E6.80335
G1 X96.482 Y82.562 E6.81351
G1 X96.891 Y82.364 E6.82862
G1 X97.208 Y82.217 E6.84024
G1 X97.897 Y81.911 E6.86532
G1 X98.155 Y81.801 E6.87464
G1 X98.596 Y81.619 E6.89051
G1 X98.91 Y81.495 E6.90174
G1 X99.567 Y81.248 E6.92509
G1 X99.861 Y81.142 E6.93548
G1 X100.29 Y80.995 E6.95056
G1 X100.6 Y80.894 E6.96141
G1 X101.355 Y80.661 E6.98769
G1 X101.643 Y80.577 E6.99767
G1 X102.046 Y80.465 E7.01158
G1 X102.37 Y80.38 E7.02272
G1 X103.095 Y80.203 E7.04754
G1 X103.378 Y80.138 E7.0572
G1 X103.824 Y80.042 E7.07237
G1 X104.149 Y79.978 E7.08339
G1 X104.871 Y79.846 E7.1078
G1 X105.205 Y79.79 E7.11906
G1 X105.685 Y79.718 E7.13521
G1 X105.984 Y79.678 E7.14524
G1 X106.67 Y79.595 E7.16822
G1 X106.988 Y79.561 E7.17886
G1 X107.441 Y79.52 E7.19399
G1 X107.751 Y79.497 E7.20433
G1 X108.555 Y79.448 E7.23112
G1 X108.89 Y79.433 E7.24227
G1 X109.369 Y79.419 E7.25821
G1 X109.679 Y79.414 E7.26852
G1 X110.358 Y79.414 E7.29111
G1 X110.681 Y79.419 E7.30185
G1 X111.14 Y79.433 E7.31712
G1 X111.44 Y79.446 E7.32711
G1 X112.187 Y79.49 E7.352
G1 X112.515 Y79.515 E7.36294
G1 X112.97 Y79.556 E7.37814
G1 X113.281 Y79.588 E7.38853
G1 X113.973 Y79.671 E7.41172
G1 X114.262 Y79.71 E7.42141
G1 X114.769 Y79.785 E7.43846
G1 X115.1 Y79.839 E7.44962
G1 X115.793 Y79.964 E7.47304
G1 X116.113 Y80.027 E7.48388
G1 X116.565 Y80.123 E7.49925
G1 X116.857 Y80.189 E7.50921
G1 X117.58 Y80.364 E7.53395
G1 X117.909 Y80.45 E7.54526
G1 X118.365 Y80.576 E7.561
G1 X118.656 Y80.661 E7.57108
G1 X119.323 Y80.866 E7.59429
G1 X119.63 Y80.965 E7.60502
G1 X120.111 Y81.129 E7.62192
G1 X120.417 Y81.239 E7.63274
G1 X121.064 Y81.482 E7.65572
G1 X121.336 Y81.588 E7.66543
G1 X121.8 Y81.777 E7.6821
G1 X122.107 Y81.908 E7.6932
G1 X122.748 Y82.193 E7.71653
G1 X123.025 Y82.321 E7.72668
G1 X123.44 Y82.52 E7.74199
G1 X123.729 Y82.664 E7.75273
G1 X124.413 Y83.018 E7.77834
G1 X124.709 Y83.177 E7.78952
G1 X125.051 Y83.368 E7.80255
G1 X125.323 Y83.526 E7.81301
G1 X126.032 Y83.95 E7.84048
G1 X126.298 Y84.114 E7.85088
G1 X126.727 Y84.388 E7.86781
G1 X126.986 Y84.559 E7.87813
G1 X127.506 Y84.913 E7.89905
G1 X127.776 Y85.102 E7.91002
G1 X128.15 Y85.374 E7.9254
G1 X128.391 Y85.555 E7.93542
G1 X128.978 Y86.008 E7.96008
G1 X129.225 Y86.205 E7.97059
G1 X129.598 Y86.511 E7.98664
G1 X129.85 Y86.724 E7.99761
G1 X130.373 Y87.181 E8.02071
G1 X130.587 Y87.373 E8.03028
G1 X130.976 Y87.732 E8.04788
G1 X131.226 Y87.971 E8.05938
G1 X131.7 Y88.438 E8.08152
G1 X131.916 Y88.656 E8.09172
G1 X132.235 Y88.989 E8.10706
G1 X132.459 Y89.231 E8.11803
G1 X132.999 Y89.831 E8.14488
G1 X133.206 Y90.068 E8.15534
